images/cinema.svg

<?xml version="1.0" encoding="UTF-8" standalone="no"?>
<svg xmlns:dc="http://purl.org/dc/elements/1.1/" xmlns:cc="http://creativecommons.org/ns#" xmlns:rdf="http://www.w3.org/1999/02/22-rdf-syntax-ns#" xmlns:svg="http://www.w3.org/2000/svg" xmlns="http://www.w3.org/2000/svg" xmlns:sodipodi="http://sodipodi.sourceforge.net/DTD/sodipodi-0.dtd" xmlns:inkscape="http://www.inkscape.org/namespaces/inkscape" id="svg2" viewBox="0 0 14 14" height="14" width="14" version="1.1" sodipodi:docname="cinema.svg" inkscape:version="0.92.3 (2405546, 2018-03-11)">
  <sodipodi:namedview pagecolor="#ffffff" bordercolor="#666666" borderopacity="1" objecttolerance="10" gridtolerance="10" guidetolerance="10" inkscape:pageopacity="0" inkscape:pageshadow="2" inkscape:window-width="1881" inkscape:window-height="1051" id="namedview14792" showgrid="false" inkscape:zoom="16.857143" inkscape:cx="-13.929105" inkscape:cy="7.0015709" inkscape:window-x="0" inkscape:window-y="0" inkscape:window-maximized="1" inkscape:current-layer="svg2" inkscape:pagecheckerboard="true" />
  <metadata id="metadata10">
    <rdf:RDF>
      <cc:Work rdf:about="">
        <dc:format>image/svg+xml</dc:format>
        <dc:type rdf:resource="http://purl.org/dc/dcmitype/StillImage" />
        <dc:title />
      </cc:Work>
    </rdf:RDF>
  </metadata>
  <defs id="defs8" />
  <path d="M 1,1 C 0.446,1 0,1.446 0,2 V 13 C 0,13.554 0.446,14 1,14 H 13 C 13.554,14 14,13.554 14,13 V 2 C 14,1.446 13.554,1 13,1 Z M 1.25,2 H 1.75 C 1.8885,2 2,2.1115 2,2.25 V 2.75 C 2,2.8885 1.8885,3 1.75,3 H 1.25 C 1.1115,3 1,2.8885 1,2.75 V 2.25 C 1,2.1115 1.1115,2 1.25,2 Z M 4,2 H 10 V 7 H 4 Z M 12.25,2 H 12.75 C 12.8885,2 13,2.1115 13,2.25 V 2.75 C 13,2.8885 12.8885,3 12.75,3 H 12.25 C 12.1115,3 12,2.8885 12,2.75 V 2.25 C 12,2.1115 12.1115,2 12.25,2 Z M 1.25,4 H 1.75 C 1.8885,4 2,4.1115 2,4.25 V 4.75 C 2,4.8885 1.8885,5 1.75,5 H 1.25 C 1.1115,5 1,4.8885 1,4.75 V 4.25 C 1,4.1115 1.1115,4 1.25,4 Z M 12.25,4 H 12.75 C 12.8885,4 13,4.1115 13,4.25 V 4.75 C 13,4.8885 12.8885,5 12.75,5 H 12.25 C 12.1115,5 12,4.8885 12,4.75 V 4.25 C 12,4.1115 12.1115,4 12.25,4 Z M 1.25,6 H 1.75 C 1.8885,6 2,6.1115 2,6.25 V 6.75 C 2,6.8885 1.8885,7 1.75,7 H 1.25 C 1.1115,7 1,6.8885 1,6.75 V 6.25 C 1,6.1115 1.1115,6 1.25,6 Z M 12.25,6 H 12.75 C 12.8885,6 13,6.1115 13,6.25 V 6.75 C 13,6.8885 12.8885,7 12.75,7 H 12.25 C 12.1115,7 12,6.8885 12,6.75 V 6.25 C 12,6.1115 12.1115,6 12.25,6 Z M 1.25,8 H 1.75 C 1.8885,8 2,8.1115 2,8.25 V 8.75 C 2,8.8885 1.8885,9 1.75,9 H 1.25 C 1.1115,9 1,8.8885 1,8.75 V 8.25 C 1,8.1115 1.1115,8 1.25,8 Z M 4,8 H 10 V 13 H 4 Z M 12.25,8 H 12.75 C 12.8885,8 13,8.1115 13,8.25 V 8.75 C 13,8.8885 12.8885,9 12.75,9 H 12.25 C 12.1115,9 12,8.8885 12,8.75 V 8.25 C 12,8.1115 12.1115,8 12.25,8 Z M 1.25,10 H 1.75 C 1.8885,10 2,10.1115 2,10.25 V 10.75 C 2,10.8885 1.8885,11 1.75,11 H 1.25 C 1.1115,11 1,10.8885 1,10.75 V 10.25 C 1,10.1115 1.1115,10 1.25,10 Z M 12.25,10 H 12.75 C 12.8885,10 13,10.1115 13,10.25 V 10.75 C 13,10.8885 12.8885,11 12.75,11 H 12.25 C 12.1115,11 12,10.8885 12,10.75 V 10.25 C 12,10.1115 12.1115,10 12.25,10 Z M 1.25,12 H 1.75 C 1.8885,12 2,12.1115 2,12.25 V 12.75 C 2,12.8885 1.8885,13 1.75,13 H 1.25 C 1.1115,13 1,12.8885 1,12.75 V 12.25 C 1,12.1115 1.1115,12 1.25,12 Z M 12.25,12 H 12.75 C 12.8885,12 13,12.1115 13,12.25 V 12.75 C 13,12.8885 12.8885,13 12.75,13 H 12.25 C 12.1115,13 12,12.8885 12,12.75 V 12.25 C 12,12.1115 12.1115,12 12.25,12 Z" id="outline" style="fill:none;stroke:#ffffff;stroke-width:3;stroke-linecap:round;stroke-linejoin:round;stroke-miterlimit:4;stroke-dasharray:none;stroke-opacity:0.50196078" inkscape:connector-curvature="0" />
  <path id="path4" d="M 1,1 C 0.446,1 0,1.446 0,2 l 0,11 c 0,0.554 0.446,1 1,1 l 12,0 c 0.554,0 1,-0.446 1,-1 L 14,2 C 14,1.446 13.554,1 13,1 L 1,1 Z m 0.25,1 0.5,0 C 1.8885,2 2,2.1115 2,2.25 l 0,0.5 C 2,2.8885 1.8885,3 1.75,3 L 1.25,3 C 1.1115,3 1,2.8885 1,2.75 L 1,2.25 C 1,2.1115 1.1115,2 1.25,2 Z M 4,2 10,2 10,7 4,7 4,2 Z m 8.25,0 0.5,0 C 12.8885,2 13,2.1115 13,2.25 l 0,0.5 C 13,2.8885 12.8885,3 12.75,3 l -0.5,0 C 12.1115,3 12,2.8885 12,2.75 l 0,-0.5 C 12,2.1115 12.1115,2 12.25,2 Z m -11,2 0.5,0 C 1.8885,4 2,4.1115 2,4.25 l 0,0.5 C 2,4.8885 1.8885,5 1.75,5 L 1.25,5 C 1.1115,5 1,4.8885 1,4.75 L 1,4.25 C 1,4.1115 1.1115,4 1.25,4 Z m 11,0 0.5,0 C 12.8885,4 13,4.1115 13,4.25 l 0,0.5 C 13,4.8885 12.8885,5 12.75,5 l -0.5,0 C 12.1115,5 12,4.8885 12,4.75 l 0,-0.5 C 12,4.1115 12.1115,4 12.25,4 Z m -11,2 0.5,0 C 1.8885,6 2,6.1115 2,6.25 l 0,0.5 C 2,6.8885 1.8885,7 1.75,7 L 1.25,7 C 1.1115,7 1,6.8885 1,6.75 L 1,6.25 C 1,6.1115 1.1115,6 1.25,6 Z m 11,0 0.5,0 C 12.8885,6 13,6.1115 13,6.25 l 0,0.5 C 13,6.8885 12.8885,7 12.75,7 l -0.5,0 C 12.1115,7 12,6.8885 12,6.75 l 0,-0.5 C 12,6.1115 12.1115,6 12.25,6 Z m -11,2 0.5,0 C 1.8885,8 2,8.1115 2,8.25 l 0,0.5 C 2,8.8885 1.8885,9 1.75,9 L 1.25,9 C 1.1115,9 1,8.8885 1,8.75 L 1,8.25 C 1,8.1115 1.1115,8 1.25,8 Z M 4,8 l 6,0 0,5 -6,0 0,-5 z m 8.25,0 0.5,0 C 12.8885,8 13,8.1115 13,8.25 l 0,0.5 C 13,8.8885 12.8885,9 12.75,9 l -0.5,0 C 12.1115,9 12,8.8885 12,8.75 l 0,-0.5 C 12,8.1115 12.1115,8 12.25,8 Z m -11,2 0.5,0 C 1.8885,10 2,10.1115 2,10.25 l 0,0.5 C 2,10.8885 1.8885,11 1.75,11 l -0.5,0 C 1.1115,11 1,10.8885 1,10.75 l 0,-0.5 C 1,10.1115 1.1115,10 1.25,10 Z m 11,0 0.5,0 c 0.1385,0 0.25,0.1115 0.25,0.25 l 0,0.5 C 13,10.8885 12.8885,11 12.75,11 l -0.5,0 C 12.1115,11 12,10.8885 12,10.75 l 0,-0.5 C 12,10.1115 12.1115,10 12.25,10 Z m -11,2 0.5,0 C 1.8885,12 2,12.1115 2,12.25 l 0,0.5 C 2,12.8885 1.8885,13 1.75,13 l -0.5,0 C 1.1115,13 1,12.8885 1,12.75 l 0,-0.5 C 1,12.1115 1.1115,12 1.25,12 Z m 11,0 0.5,0 c 0.1385,0 0.25,0.1115 0.25,0.25 l 0,0.5 C 13,12.8885 12.8885,13 12.75,13 l -0.5,0 C 12.1115,13 12,12.8885 12,12.75 l 0,-0.5 C 12,12.1115 12.1115,12 12.25,12 Z" />
</svg>

<svg xmlns="http://www.w3.org/2000/svg" height="14" width="14">
    <path d="M1 1c-.554 0-1 .446-1 1v11c0 .554.446 1 1 1h12c.554 0 1-.446 1-1V2c0-.554-.446-1-1-1zm.25 1h.5a.25.25 0 01.25.25v.5a.25.25 0 01-.25.25h-.5A.25.25 0 011 2.75v-.5A.25.25 0 011.25 2zM4 2h6v5H4zm8.25 0h.5a.25.25 0 01.25.25v.5a.25.25 0 01-.25.25h-.5a.25.25 0 01-.25-.25v-.5a.25.25 0 01.25-.25zm-11 2h.5a.25.25 0 01.25.25v.5a.25.25 0 01-.25.25h-.5A.25.25 0 011 4.75v-.5A.25.25 0 011.25 4zm11 0h.5a.25.25 0 01.25.25v.5a.25.25 0 01-.25.25h-.5a.25.25 0 01-.25-.25v-.5a.25.25 0 01.25-.25zm-11 2h.5a.25.25 0 01.25.25v.5a.25.25 0 01-.25.25h-.5A.25.25 0 011 6.75v-.5A.25.25 0 011.25 6zm11 0h.5a.25.25 0 01.25.25v.5a.25.25 0 01-.25.25h-.5a.25.25 0 01-.25-.25v-.5a.25.25 0 01.25-.25zm-11 2h.5a.25.25 0 01.25.25v.5a.25.25 0 01-.25.25h-.5A.25.25 0 011 8.75v-.5A.25.25 0 011.25 8zM4 8h6v5H4zm8.25 0h.5a.25.25 0 01.25.25v.5a.25.25 0 01-.25.25h-.5a.25.25 0 01-.25-.25v-.5a.25.25 0 01.25-.25zm-11 2h.5a.25.25 0 01.25.25v.5a.25.25 0 01-.25.25h-.5a.25.25 0 01-.25-.25v-.5a.25.25 0 01.25-.25zm11 0h.5a.25.25 0 01.25.25v.5a.25.25 0 01-.25.25h-.5a.25.25 0 01-.25-.25v-.5a.25.25 0 01.25-.25zm-11 2h.5a.25.25 0 01.25.25v.5a.25.25 0 01-.25.25h-.5a.25.25 0 01-.25-.25v-.5a.25.25 0 01.25-.25zm11 0h.5a.25.25 0 01.25.25v.5a.25.25 0 01-.25.25h-.5a.25.25 0 01-.25-.25v-.5a.25.25 0 01.25-.25z" fill="none" stroke="#fff" stroke-width="3" stroke-linecap="round" stroke-linejoin="round" stroke-opacity=".5"/>
    <path d="M1 1c-.554 0-1 .446-1 1v11c0 .554.446 1 1 1h12c.554 0 1-.446 1-1V2c0-.554-.446-1-1-1H1zm.25 1h.5a.25.25 0 01.25.25v.5a.25.25 0 01-.25.25h-.5A.25.25 0 011 2.75v-.5A.25.25 0 011.25 2zM4 2h6v5H4V2zm8.25 0h.5a.25.25 0 01.25.25v.5a.25.25 0 01-.25.25h-.5a.25.25 0 01-.25-.25v-.5a.25.25 0 01.25-.25zm-11 2h.5a.25.25 0 01.25.25v.5a.25.25 0 01-.25.25h-.5A.25.25 0 011 4.75v-.5A.25.25 0 011.25 4zm11 0h.5a.25.25 0 01.25.25v.5a.25.25 0 01-.25.25h-.5a.25.25 0 01-.25-.25v-.5a.25.25 0 01.25-.25zm-11 2h.5a.25.25 0 01.25.25v.5a.25.25 0 01-.25.25h-.5A.25.25 0 011 6.75v-.5A.25.25 0 011.25 6zm11 0h.5a.25.25 0 01.25.25v.5a.25.25 0 01-.25.25h-.5a.25.25 0 01-.25-.25v-.5a.25.25 0 01.25-.25zm-11 2h.5a.25.25 0 01.25.25v.5a.25.25 0 01-.25.25h-.5A.25.25 0 011 8.75v-.5A.25.25 0 011.25 8zM4 8h6v5H4V8zm8.25 0h.5a.25.25 0 01.25.25v.5a.25.25 0 01-.25.25h-.5a.25.25 0 01-.25-.25v-.5a.25.25 0 01.25-.25zm-11 2h.5a.25.25 0 01.25.25v.5a.25.25 0 01-.25.25h-.5a.25.25 0 01-.25-.25v-.5a.25.25 0 01.25-.25zm11 0h.5a.25.25 0 01.25.25v.5a.25.25 0 01-.25.25h-.5a.25.25 0 01-.25-.25v-.5a.25.25 0 01.25-.25zm-11 2h.5a.25.25 0 01.25.25v.5a.25.25 0 01-.25.25h-.5a.25.25 0 01-.25-.25v-.5a.25.25 0 01.25-.25zm11 0h.5a.25.25 0 01.25.25v.5a.25.25 0 01-.25.25h-.5a.25.25 0 01-.25-.25v-.5a.25.25 0 01.25-.25z"/>
</svg>
